X: 5009
T: Breton Gavotte
R: hornpipe
M: 4/4
K: Gminor
|:DG[GG,]B AG[^FG,]G|ABBA GBAG|DG[GG,]B AG[^FG,]G|1 ABBA GDEC:|2 ABBA G2G2||
GABc d2d/d/d|edef d4|GABc d2d/d/d|edf2 d4|
BccB cdB2|AGAB BAd2|BccB cdB2|AGAB G2G2||
|:dgfd cddc|BGAB c2d2|(c/d/)g(f/e/)d cddc|(B/A/)GAB G2G2:|

